synths/sLDO.svg

<svg width="42" height="42" viewBox="0 0 42 42" fill="none" xmlns="http://www.w3.org/2000/svg">
<g clip-path="url(#clip0_7277_58021)">
<mask id="mask0_7277_58021" style="mask-type:alpha" maskUnits="userSpaceOnUse" x="0" y="0" width="42" height="42">
<circle cx="21" cy="21" r="21" fill="url(#paint0_linear_7277_58021)"/>
</mask>
<g mask="url(#mask0_7277_58021)">
<circle cx="21" cy="21" r="21" fill="#34EDB3"/>
<circle cx="21" cy="21" r="18.2" fill="white"/>
</g>
<circle cx="21" cy="21" r="16.1" fill="#06061B"/>
<g clip-path="url(#clip1_7277_58021)">
<mask id="mask1_7277_58021" style="mask-type:luminance" maskUnits="userSpaceOnUse" x="4" y="4" width="34" height="34">
<path d="M21.0001 4.90002C29.8873 4.90002 37.1001 12.1128 37.1001 21C37.1001 29.8872 29.8873 37.1 21.0001 37.1C12.1129 37.1 4.90005 29.8872 4.90005 21C4.90005 12.1128 12.1129 4.90002 21.0001 4.90002Z" fill="white"/>
</mask>
<g mask="url(#mask1_7277_58021)">
<path d="M4.90005 4.90002L37.1001 37.1M37.1001 4.90002L4.90005 37.1" stroke="black" stroke-miterlimit="22.9256"/>
</g>
<path d="M21.0001 4.90002C29.8873 4.90002 37.1001 12.1128 37.1001 21C37.1001 29.8872 29.8873 37.1 21.0001 37.1C12.1129 37.1 4.90005 29.8872 4.90005 21C4.90005 12.1128 12.1129 4.90002 21.0001 4.90002Z" fill="url(#paint1_linear_7277_58021)"/>
<mask id="mask2_7277_58021" style="mask-type:luminance" maskUnits="userSpaceOnUse" x="12" y="19" width="18" height="15">
<path d="M20.9872 23.8594L13.8131 19.7635L13.6199 20.0598C11.4174 23.4472 11.9068 27.8779 14.8048 30.7244C18.218 34.0732 23.7564 34.0732 27.1696 30.7244C30.0676 27.8779 30.5571 23.4472 28.3546 20.0598L28.1614 19.7635L20.9872 23.8594Z" fill="white"/>
</mask>
<g mask="url(#mask2_7277_58021)">
<path d="M20.987 33.4936C25.8171 33.4936 29.7326 29.5781 29.7326 24.7481C29.7326 19.9181 25.8171 16.0026 20.987 16.0026C16.157 16.0026 12.2415 19.9181 12.2415 24.7481C12.2415 29.5781 16.157 33.4936 20.987 33.4936Z" fill="url(#paint2_radial_7277_58021)"/>
</g>
<path d="M20.9871 14.7146L14.8047 18.2437L20.9871 21.7728L27.1695 18.2437L20.9871 14.7146Z" fill="url(#paint3_radial_7277_58021)"/>
<path d="M21.0003 15.6292L13.8133 19.7636L20.9874 23.8595L28.1487 19.7636L21.0003 15.6292Z" fill="url(#paint4_radial_7277_58021)"/>
<path d="M20.9871 8.76404L14.8047 18.2437L20.9871 21.7728V8.76404Z" fill="url(#paint5_linear_7277_58021)"/>
<path d="M20.9872 21.7728L27.1696 18.2437L20.9872 8.76404V21.7728Z" fill="url(#paint6_linear_7277_58021)"/>
</g>
</g>
<defs>
<linearGradient id="paint0_linear_7277_58021" x1="21" y1="0" x2="21" y2="61.4091" gradientUnits="userSpaceOnUse">
<stop stop-color="#08021E"/>
<stop offset="1" stop-color="#1F0777"/>
</linearGradient>
<linearGradient id="paint1_linear_7277_58021" x1="21.0001" y1="4.90002" x2="21.0001" y2="37.1" gradientUnits="userSpaceOnUse">
<stop stop-color="#F89791"/>
<stop offset="1" stop-color="#F7C882"/>
</linearGradient>
<radialGradient id="paint2_radial_7277_58021" cx="0" cy="0" r="1" gradientUnits="userSpaceOnUse" gradientTransform="translate(20.9705 31.9063) rotate(-90.4664) scale(11.6792 13.9209)">
<stop stop-color="#C5C6AB"/>
<stop offset="1" stop-color="#7985AB"/>
</radialGradient>
<radialGradient id="paint3_radial_7277_58021" cx="0" cy="0" r="1" gradientUnits="userSpaceOnUse" gradientTransform="translate(20.9871 18.2437) scale(0.30912)">
<stop stop-color="#0066FF" stop-opacity="0"/>
<stop offset="1" stop-color="#00C2FF" stop-opacity="0.4"/>
</radialGradient>
<radialGradient id="paint4_radial_7277_58021" cx="0" cy="0" r="1" gradientUnits="userSpaceOnUse" gradientTransform="translate(20.981 19.7443) scale(0.360743)">
<stop stop-color="#AEE6F9" stop-opacity="0.8588"/>
<stop offset="1" stop-color="#C8D6DC"/>
</radialGradient>
<linearGradient id="paint5_linear_7277_58021" x1="17.8959" y1="8.12004" x2="17.8959" y2="21" gradientUnits="userSpaceOnUse">
<stop stop-color="#77D4FF"/>
<stop offset="1" stop-color="#93D6F2" stop-opacity="0.898"/>
</linearGradient>
<linearGradient id="paint6_linear_7277_58021" x1="24.0784" y1="8.12004" x2="24.0784" y2="21" gradientUnits="userSpaceOnUse">
<stop stop-color="#506AAC"/>
<stop offset="1" stop-color="#96CFEF" stop-opacity="0.8196"/>
</linearGradient>
<clipPath id="clip0_7277_58021">
<rect width="42" height="42" fill="white"/>
</clipPath>
<clipPath id="clip1_7277_58021">
<rect x="4.90002" y="4.90002" width="32.2" height="32.2" rx="16.1" fill="white"/>
</clipPath>
</defs>
</svg>

<svg xmlns="http://www.w3.org/2000/svg" width="42" height="42" fill="none"><g clip-path="url(#a)"><mask id="c" width="42" height="42" x="0" y="0" maskUnits="userSpaceOnUse" style="mask-type:alpha"><circle cx="21" cy="21" r="21" fill="url(#b)"/></mask><g mask="url(#c)"><circle cx="21" cy="21" r="21" fill="#34EDB3"/><circle cx="21" cy="21" r="18.2" fill="#fff"/></g><circle cx="21" cy="21" r="16.1" fill="#06061B"/><g clip-path="url(#d)"><mask id="e" width="34" height="34" x="4" y="4" maskUnits="userSpaceOnUse" style="mask-type:luminance"><path fill="#fff" d="M21 4.9c8.887 0 16.1 7.213 16.1 16.1S29.887 37.1 21 37.1 4.9 29.887 4.9 21 12.113 4.9 21 4.9Z"/></mask><g mask="url(#e)"><path stroke="#000" stroke-miterlimit="22.926" d="m4.9 4.9 32.2 32.2m0-32.2L4.9 37.1"/></g><path fill="url(#f)" d="M21 4.9c8.887 0 16.1 7.213 16.1 16.1S29.887 37.1 21 37.1 4.9 29.887 4.9 21 12.113 4.9 21 4.9Z"/><mask id="g" width="18" height="15" x="12" y="19" maskUnits="userSpaceOnUse" style="mask-type:luminance"><path fill="#fff" d="m20.987 23.86-7.174-4.096-.193.296c-2.203 3.387-1.713 7.818 1.185 10.664 3.413 3.35 8.951 3.35 12.365 0 2.898-2.846 3.387-7.277 1.185-10.664l-.194-.296-7.174 4.095Z"/></mask><g mask="url(#g)"><path fill="url(#h)" d="M20.987 33.494a8.746 8.746 0 1 0 0-17.491 8.746 8.746 0 0 0 0 17.49Z"/></g><path fill="url(#i)" d="m20.987 14.715-6.182 3.529 6.182 3.529 6.183-3.53-6.183-3.528Z"/><path fill="url(#j)" d="m21 15.63-7.187 4.134 7.174 4.096 7.162-4.096L21 15.629Z"/><path fill="url(#k)" d="m20.987 8.764-6.182 9.48 6.182 3.529V8.764Z"/><path fill="url(#l)" d="m20.987 21.773 6.183-3.53-6.183-9.479v13.009Z"/></g></g><defs><linearGradient id="b" x1="21" x2="21" y1="0" y2="61.409" gradientUnits="userSpaceOnUse"><stop stop-color="#08021E"/><stop offset="1" stop-color="#1F0777"/></linearGradient><linearGradient id="f" x1="21" x2="21" y1="4.9" y2="37.1" gradientUnits="userSpaceOnUse"><stop stop-color="#F89791"/><stop offset="1" stop-color="#F7C882"/></linearGradient><linearGradient id="k" x1="17.896" x2="17.896" y1="8.12" y2="21" gradientUnits="userSpaceOnUse"><stop stop-color="#77D4FF"/><stop offset="1" stop-color="#93D6F2" stop-opacity=".898"/></linearGradient><linearGradient id="l" x1="24.078" x2="24.078" y1="8.12" y2="21" gradientUnits="userSpaceOnUse"><stop stop-color="#506AAC"/><stop offset="1" stop-color="#96CFEF" stop-opacity=".82"/></linearGradient><radialGradient id="h" cx="0" cy="0" r="1" gradientTransform="matrix(-.09507 -11.67881 13.92044 -.11332 20.97 31.906)" gradientUnits="userSpaceOnUse"><stop stop-color="#C5C6AB"/><stop offset="1" stop-color="#7985AB"/></radialGradient><radialGradient id="i" cx="0" cy="0" r="1" gradientTransform="translate(20.987 18.244) scale(.30912)" gradientUnits="userSpaceOnUse"><stop stop-color="#06F" stop-opacity="0"/><stop offset="1" stop-color="#00C2FF" stop-opacity=".4"/></radialGradient><radialGradient id="j" cx="0" cy="0" r="1" gradientTransform="matrix(.36074 0 0 .36074 20.981 19.744)" gradientUnits="userSpaceOnUse"><stop stop-color="#AEE6F9" stop-opacity=".859"/><stop offset="1" stop-color="#C8D6DC"/></radialGradient><clipPath id="a"><path fill="#fff" d="M0 0h42v42H0z"/></clipPath><clipPath id="d"><rect width="32.2" height="32.2" x="4.9" y="4.9" fill="#fff" rx="16.1"/></clipPath></defs></svg>
